X: 1
T: Lady Anne Montgomery
R: reel
M: 4/4
L: 1/8
K: Dmaj
|:FADA FADA|FAdA BAdA|FAAF E2 EF|DB,A,B, D4|FADA FADA|FAdA B2Bc|dBAF E2 EF|DB,A,B, D4:||:f2 fa fede|fedB ABde|f3 a fede|faaf e2de|f4 fede|fedB ABde|f2 ed BdAd|egfe d4:|


Tune 59	Setting 26713

